src/assets/svg/icons/check-mark.svg

<svg width="35" height="35" viewBox="0 0 35 35" fill="none" xmlns="http://www.w3.org/2000/svg">
<circle cx="17.5" cy="17.5" r="17.5" fill="#FFD234"/>
<path d="M18 6.375C11.5781 6.375 6.375 11.625 6.375 18C6.375 24.4219 11.5781 29.625 18 29.625C24.375 29.625 29.625 24.4219 29.625 18C29.625 11.625 24.375 6.375 18 6.375ZM18 8.625C23.1562 8.625 27.375 12.8438 27.375 18C27.375 23.2031 23.1562 27.375 18 27.375C12.7969 27.375 8.625 23.2031 8.625 18C8.625 12.8438 12.7969 8.625 18 8.625ZM24.5625 14.7656L23.4844 13.6875C23.2969 13.4531 22.9219 13.4531 22.6875 13.6875L16.0781 20.25L13.2656 17.4375C13.0312 17.2031 12.7031 17.2031 12.4688 17.4375L11.3906 18.4688C11.2031 18.7031 11.2031 19.0781 11.3906 19.2656L15.6562 23.5781C15.8906 23.8125 16.2188 23.8125 16.4531 23.5781L24.5625 15.5625C24.75 15.3281 24.75 14.9531 24.5625 14.7656Z" fill="#17B86B"/>
</svg>

<svg width="35" height="35" fill="none" xmlns="http://www.w3.org/2000/svg"><circle cx="17.5" cy="17.5" r="17.5" fill="#FFD234"/><path d="M18 6.375c-6.422 0-11.625 5.25-11.625 11.625 0 6.422 5.203 11.625 11.625 11.625 6.375 0 11.625-5.203 11.625-11.625 0-6.375-5.25-11.625-11.625-11.625zm0 2.25c5.156 0 9.375 4.219 9.375 9.375 0 5.203-4.219 9.375-9.375 9.375A9.343 9.343 0 0 1 8.625 18c0-5.156 4.172-9.375 9.375-9.375zm6.563 6.14-1.079-1.078c-.187-.234-.562-.234-.797 0l-6.609 6.563-2.812-2.813a.54.54 0 0 0-.797 0L11.39 18.47c-.188.234-.188.61 0 .797l4.265 4.312a.54.54 0 0 0 .797 0l8.11-8.015c.187-.235.187-.61 0-.797z" fill="#17B86B"/></svg>
